cssgg/format-heading.svg

<svg viewBox="0 0 24 24" xmlns="http://www.w3.org/2000/svg"><path d="M6 19V5h2v6h8V5h2v14h-2v-6H8v6H6Z"/></svg>

<svg
  width="24"
  height="24"
  viewBox="0 0 24 24"
  fill="none"
  xmlns="http://www.w3.org/2000/svg"
>
  <path d="M6 19V5H8V11H16V5H18V19H16V13H8V19H6Z" fill="currentColor" />
</svg>
